X:1
T:[ID 3-13a]
T:[ID 3-13a]
T:Bezeichnung standardisiert: Allegro [Sammelbezeichnung]; Allegro In dieser Quelle auch als: Allegro 8.
T:Urheber unbekannt Erstbeleg: 1767 (Datum in der schriftlichen Quelle) Datum in der hier transkribierten schriftlichen Quelle: 1799
C:Urheber unbekannt
C:Erstbeleg: 1767 (Datum in der schriftlichen Quelle)
C:Datum in der hier transkribierten schriftlichen Quelle: 1799
%%score 1 2
L:1/8
M:2/4
K:C
V:1 treble nm="Violino Primo"
V:2 treble nm="Violino Secondo"
V:1
 cedc | dfed | egfe | Td2 G2 | cedc | dfed | e2 TB2 | c4 :: egfe | Tf4 | dfed | Te4 | cedc | dfed | %14
 e2 TB2 | c4 :| %16
V:2
 !fermata!Ec GE | GdcG | cedc | G2 G/A/G/F/ | Ec GE | GdcG | F/E/F/D/ GF | E4 :: cedc | Td4 | %10
 GdcG | Tc4 | Ec GE | GdcG | F/E/F/D/ GF | E4 :| %16

